; generated by PrusaSlicer 2.1.0+win64 on 2019-10-27 at 19:17:33 UTC

; 

; external perimeters extrusion width = 0.42mm
; perimeters extrusion width = 0.45mm
; infill extrusion width = 0.45mm
; solid infill extrusion width = 0.45mm
; top infill extrusion width = 0.42mm
; first layer extrusion width = 0.45mm

M73 P0 R12
M73 Q0 S12
M201 X4000 Y4000 Z200 E2000 ; sets maximum accelerations, mm/sec^2
M203 X500 Y500 Z12 E120 ; sets maximum feedrates, mm/sec
M204 P1200 R1200 T1200 ; sets acceleration (P, T) and retract acceleration (R), mm/sec^2
M205 X6.00 Y6.00 Z0.40 E2.00 ; sets the jerk limits, mm/sec
M205 S0 T0 ; sets the minimum extruding and travel feed rate, mm/sec
M107
M83  ; extruder relative mode
M140 S70 ; set bed temp
M109 S160 ; Set extruder temp before bed level
M190 S70 ; wait for bed temp


G28 W ; home all without mesh bed level
G80 ; mesh bed leveling set 3x3, 5x5, or 7x7 in settings menu

G1 Y-3.0 Z0.6 F1000.0 ; go outside print area

M109 S215 ; wait for extruder temp

G92 E0.0
G1 Z0.2 E8 ; Purge Bubble
M73 Q0 S12
M73 P0 R12
G1 X60.0 E9.0  F1000.0 ; intro line
G1 X100.0 E12.5  F1000.0 ; intro line
G92 E0.0
G21 ; set units to millimeters
G90 ; use absolute coordinates
M83 ; use relative distances for extrusion
M900 K28; Filament gcode
;BEFORE_LAYER_CHANGE
G92 E0.0
;0.2




G1 E-0.80000 F1800.00000
G1 Z0.200 F7200.000
;AFTER_LAYER_CHANGE
;0.2
G1 Z0.400
G1 X114.171 Y98.854
G1 Z0.200
G1 E0.80000 F1800.00000
M204 S1000
G1 F1200
G1 X115.399 Y97.063 E0.06985
G1 X116.138 Y96.318 E0.03372
G1 X119.608 Y93.804 E0.13780
G1 X121.149 Y93.149 E0.05386
G1 X122.782 Y92.773 E0.05389
G1 X126.999 Y92.767 E0.13559
G1 X127.936 Y92.895 E0.03043
G1 X129.752 Y93.485 E0.06139
G1 X130.306 Y93.751 E0.01974
G1 X133.969 Y96.402 E0.14542
G1 X135.051 Y97.636 E0.05277
G1 X135.943 Y99.111 E0.05544
G1 X137.310 Y103.316 E0.14217
G1 X137.437 Y104.439 E0.03634
G1 X137.361 Y106.463 E0.06515
G1 X135.952 Y110.866 E0.14864
G1 X135.102 Y112.295 E0.05347
G1 X133.984 Y113.586 E0.05491
G1 X130.557 Y116.083 E0.13636
G1 X130.013 Y116.406 E0.02035
G1 X129.093 Y116.767 E0.03178
G1 X127.444 Y117.206 E0.05487
G1 X122.985 Y117.233 E0.14337
G1 X122.363 Y117.176 E0.02010
G1 X120.909 Y116.767 E0.04858
G1 X119.575 Y116.175 E0.04692
G1 X116.022 Y113.591 E0.14129
G1 X114.905 Y112.305 E0.05475
G1 X114.053 Y110.878 E0.05346
G1 X112.688 Y106.677 E0.14202
G1 X112.540 Y105.042 E0.05282
G1 X112.639 Y103.535 E0.04854
G1 X114.152 Y98.911 E0.15645
G1 X114.533 Y99.039 F7200.000
G1 F1200
G1 X115.720 Y97.314 E0.06732
G1 X116.387 Y96.640 E0.03050
G1 X119.821 Y94.151 E0.13637
G1 X121.276 Y93.536 E0.05079
G1 X122.814 Y93.179 E0.05078
G1 X126.999 Y93.174 E0.13456
G1 X127.823 Y93.286 E0.02676
G1 X129.606 Y93.865 E0.06028
G1 X130.101 Y94.103 E0.01764
G1 X133.709 Y96.715 E0.14325
G1 X134.729 Y97.885 E0.04993
G1 X135.567 Y99.267 E0.05195
G1 X136.916 Y103.416 E0.14030
G1 X137.030 Y104.446 E0.03333
G1 X136.960 Y106.393 E0.06263
G1 X135.574 Y110.716 E0.14598
G1 X134.766 Y112.064 E0.05054
G1 X133.720 Y113.277 E0.05150
G1 X130.319 Y115.753 E0.13527
G1 X129.834 Y116.040 E0.01812
G1 X128.951 Y116.385 E0.03049
G1 X127.382 Y116.804 E0.05222
G1 X122.433 Y116.775 E0.15916
G1 X121.051 Y116.386 E0.04615
G1 X119.797 Y115.833 E0.04409
G1 X116.282 Y113.278 E0.13972
G1 X115.235 Y112.067 E0.05149
G1 X114.431 Y110.726 E0.05027
G1 X113.083 Y106.577 E0.14029
G1 X112.947 Y105.030 E0.04993
G1 X113.040 Y103.606 E0.04590
G1 X114.515 Y99.096 E0.15258
G1 F5760
G1 X115.720 Y97.314 E-0.63865
G1 X116.008 Y97.024 E-0.12135
G1 E-0.04000 F1800.00000
G1 Z0.400 F7200.000
G1 X131.697 Y110.719
G1 Z0.200
G1 E0.80000 F1800.00000
G1 F1200
G1 X131.202 Y110.717 E0.01592
G1 X130.624 Y110.819 E0.01886
G1 X130.102 Y111.014 E0.01793
G1 X129.808 Y111.172 E0.01075
G1 X129.368 Y111.492 E0.01747
G1 X129.010 Y111.863 E0.01658
G1 X128.763 Y112.202 E0.01349
G1 X128.515 Y112.676 E0.01721
G1 X128.377 Y113.133 E0.01536
G1 X127.719 Y113.380 E0.02258
G1 X127.056 Y113.563 E0.02210
G1 X126.843 Y113.395 E0.00872
G1 X126.397 Y113.129 E0.01671
G1 X125.852 Y112.923 E0.01872
G1 X125.275 Y112.817 E0.01887
G1 X124.630 Y112.830 E0.02075
G1 X124.166 Y112.920 E0.01521
G1 X123.849 Y113.024 E0.01071
G1 X123.343 Y113.270 E0.01811
G1 X122.943 Y113.563 E0.01591
G1 X122.281 Y113.380 E0.02210
G1 X121.632 Y113.137 E0.02229
G1 X121.498 Y112.712 E0.01432
G1 X121.240 Y112.206 E0.01825
G1 X120.990 Y111.863 E0.01365
G1 X120.625 Y111.484 E0.01691
G1 X120.098 Y111.117 E0.02065
G1 X119.669 Y110.917 E0.01521
G1 X119.353 Y110.815 E0.01071
G1 X118.798 Y110.717 E0.01811
G1 X118.303 Y110.719 E0.01591
G1 X117.872 Y110.177 E0.02225
G1 X117.492 Y109.602 E0.02218
G1 X117.647 Y109.132 E0.01591
G1 X117.728 Y108.551 E0.01887
G1 X117.704 Y107.994 E0.01793
G1 X117.644 Y107.665 E0.01075
G1 X117.475 Y107.145 E0.01757
G1 X117.202 Y106.638 E0.01854
G1 X116.838 Y106.183 E0.01872
G1 X116.446 Y105.842 E0.01671
G1 X116.229 Y105.696 E0.00841
G1 X116.190 Y104.994 E0.02260
G1 X116.220 Y104.302 E0.02225
G1 X116.613 Y104.029 E0.01539
G1 X116.988 Y103.647 E0.01722
G1 X117.234 Y103.307 E0.01349
G1 X117.481 Y102.843 E0.01692
G1 X117.668 Y102.228 E0.02065
G1 X117.725 Y101.759 E0.01521
G1 X117.725 Y101.426 E0.01071
G1 X117.647 Y100.868 E0.01811
G1 X117.493 Y100.402 E0.01580
G1 X118.178 Y99.440 E0.03797
G1 X118.312 Y99.279 E0.00674
G1 X118.742 Y99.287 E0.01383
G1 X119.326 Y99.195 E0.01901
G1 X119.916 Y98.980 E0.02018
G1 X120.412 Y98.685 E0.01856
G1 X120.842 Y98.308 E0.01840
G1 X121.204 Y97.853 E0.01869
G1 X121.484 Y97.328 E0.01913
G1 X121.621 Y96.876 E0.01517
G1 X122.286 Y96.619 E0.02295
G1 X122.943 Y96.437 E0.02191
G1 X123.334 Y96.725 E0.01559
G1 X123.855 Y96.981 E0.01867
G1 X124.393 Y97.133 E0.01799
G1 X124.731 Y97.180 E0.01095
G1 X125.269 Y97.180 E0.01733
G1 X125.607 Y97.133 E0.01095
G1 X126.145 Y96.981 E0.01799
G1 X126.666 Y96.724 E0.01867
G1 X127.050 Y96.443 E0.01530
G1 X128.379 Y96.875 E0.04495
G1 X128.515 Y97.324 E0.01509
G1 X128.771 Y97.814 E0.01778
G1 X129.154 Y98.305 E0.02001
G1 X129.588 Y98.685 E0.01856
G1 X130.080 Y98.978 E0.01840
G1 X130.624 Y99.181 E0.01869
G1 X131.202 Y99.283 E0.01887
G1 X131.697 Y99.281 E0.01591
G1 X132.127 Y99.822 E0.02222
G1 X132.508 Y100.398 E0.02222
G1 X132.353 Y100.868 E0.01591
G1 X132.272 Y101.449 E0.01887
G1 X132.296 Y102.006 E0.01793
G1 X132.356 Y102.335 E0.01075
G1 X132.525 Y102.855 E0.01757
G1 X132.798 Y103.362 E0.01854
G1 X133.162 Y103.817 E0.01872
G1 X133.554 Y104.159 E0.01671
G1 X133.774 Y104.306 E0.00851
G1 X133.788 Y104.515 E0.00674
G1 X133.779 Y105.698 E0.03804
G1 X133.387 Y105.971 E0.01536
G1 X133.012 Y106.353 E0.01721
G1 X132.766 Y106.693 E0.01349
G1 X132.519 Y107.157 E0.01692
G1 X132.332 Y107.772 E0.02065
G1 X132.275 Y108.241 E0.01521
G1 X132.275 Y108.574 E0.01071
G1 X132.353 Y109.132 E0.01811
G1 X132.508 Y109.602 E0.01591
G1 X132.128 Y110.177 E0.02218
G1 X131.734 Y110.672 E0.02032
G1 X131.885 Y111.105 F7200.000
G1 F1200
G1 X131.825 Y111.126 E0.00204
G1 X131.237 Y111.124 E0.01893
G1 X130.732 Y111.213 E0.01649
G1 X130.270 Y111.386 E0.01585
G1 X130.024 Y111.518 E0.00897
G1 X129.636 Y111.800 E0.01544
G1 X129.322 Y112.125 E0.01453
G1 X129.110 Y112.417 E0.01161
G1 X128.894 Y112.831 E0.01502
G1 X128.742 Y113.331 E0.01680
G1 X128.687 Y113.424 E0.00349
G1 X128.603 Y113.483 E0.00330
G1 X127.845 Y113.767 E0.02603
G1 X127.090 Y113.976 E0.02517
G1 X126.995 Y113.983 E0.00307
G1 X126.901 Y113.958 E0.00313
G1 X126.612 Y113.732 E0.01181
G1 X126.219 Y113.497 E0.01472
G1 X125.743 Y113.317 E0.01637
G1 X125.242 Y113.225 E0.01637
G1 X124.673 Y113.236 E0.01830
G1 X124.268 Y113.315 E0.01327
G1 X124.002 Y113.402 E0.00900
G1 X123.554 Y113.620 E0.01603
G1 X123.087 Y113.962 E0.01860
G1 X122.992 Y113.986 E0.00315
G1 X122.155 Y113.767 E0.02782
G1 X121.342 Y113.450 E0.02806
G1 X121.280 Y113.376 E0.00310
G1 X121.120 Y112.866 E0.01718
G1 X120.892 Y112.419 E0.01613
G1 X120.678 Y112.125 E0.01171
G1 X120.360 Y111.795 E0.01473
G1 X119.894 Y111.471 E0.01824
G1 X119.520 Y111.297 E0.01327
G1 X119.254 Y111.211 E0.00900
G1 X118.763 Y111.124 E0.01603
G1 X118.175 Y111.126 E0.01891
G1 X118.083 Y111.084 E0.00328
G1 X117.542 Y110.417 E0.02760
G1 X117.076 Y109.699 E0.02752
G1 X117.065 Y109.598 E0.00328
G1 X117.249 Y109.039 E0.01891
G1 X117.320 Y108.531 E0.01649
G1 X117.298 Y108.039 E0.01585
G1 X117.249 Y107.764 E0.00897
G1 X117.100 Y107.306 E0.01550
G1 X116.861 Y106.863 E0.01617
G1 X116.543 Y106.466 E0.01637
G1 X116.198 Y106.165 E0.01472
G1 X115.892 Y105.960 E0.01183
G1 X115.843 Y105.891 E0.00271
G1 X115.783 Y104.996 E0.02885
G1 X115.816 Y104.231 E0.02462
G1 X115.849 Y104.097 E0.00445
G1 X115.947 Y103.996 E0.00452
G1 X116.349 Y103.717 E0.01574
G1 X116.676 Y103.383 E0.01502
G1 X116.888 Y103.091 E0.01161
G1 X117.103 Y102.687 E0.01473
G1 X117.268 Y102.144 E0.01824
G1 X117.318 Y101.734 E0.01327
G1 X117.318 Y101.454 E0.00900
G1 X117.249 Y100.961 E0.01603
G1 X117.065 Y100.402 E0.01893
G1 X117.068 Y100.344 E0.00185
G1 X117.124 Y100.218 E0.00445
G1 X117.856 Y99.191 E0.04054
G1 X118.086 Y98.915 E0.01156
G1 X118.221 Y98.870 E0.00458
G1 X118.714 Y98.879 E0.01586
G1 X119.224 Y98.799 E0.01659
G1 X119.741 Y98.611 E0.01768
G1 X120.171 Y98.354 E0.01613
G1 X120.547 Y98.026 E0.01603
G1 X120.862 Y97.629 E0.01631
G1 X121.106 Y97.172 E0.01665
G1 X121.277 Y96.626 E0.01838
G1 X121.364 Y96.539 E0.00397
G1 X122.158 Y96.232 E0.02738
G1 X122.917 Y96.022 E0.02530
G1 X122.999 Y96.014 E0.00264
G1 X123.086 Y96.037 E0.00291
G1 X123.546 Y96.375 E0.01834
G1 X124.001 Y96.599 E0.01632
G1 X124.477 Y96.734 E0.01591
G1 X124.759 Y96.773 E0.00915
G1 X125.241 Y96.773 E0.01550
G1 X125.523 Y96.734 E0.00915
G1 X125.999 Y96.599 E0.01591
G1 X126.454 Y96.375 E0.01632
G1 X126.917 Y96.035 E0.01845
G1 X126.982 Y96.016 E0.00217
G1 X127.076 Y96.023 E0.00305
G1 X128.601 Y96.519 E0.05156
G1 X128.699 Y96.594 E0.00398
G1 X128.748 Y96.688 E0.00338
G1 X128.894 Y97.169 E0.01618
G1 X129.115 Y97.593 E0.01536
G1 X129.451 Y98.024 E0.01758
G1 X129.829 Y98.354 E0.01613
G1 X130.257 Y98.609 E0.01603
G1 X130.732 Y98.787 E0.01631
G1 X131.237 Y98.876 E0.01649
G1 X131.815 Y98.874 E0.01860
G1 X131.906 Y98.910 E0.00315
G1 X132.457 Y99.582 E0.02794
G1 X132.926 Y100.314 E0.02794
G1 X132.932 Y100.411 E0.00315
G1 X132.751 Y100.961 E0.01860
G1 X132.680 Y101.469 E0.01649
G1 X132.702 Y101.961 E0.01585
G1 X132.751 Y102.236 E0.00897
G1 X132.900 Y102.694 E0.01550
G1 X133.139 Y103.137 E0.01617
G1 X133.457 Y103.534 E0.01637
G1 X133.802 Y103.835 E0.01472
G1 X134.123 Y104.056 E0.01254
G1 X134.171 Y104.151 E0.00341
G1 X134.195 Y104.502 E0.01131
G1 X134.195 Y105.506 E0.03229
G1 X134.181 Y105.805 E0.00963
G1 X134.151 Y105.903 E0.00330
G1 X134.079 Y105.985 E0.00349
G1 X133.651 Y106.283 E0.01680
G1 X133.324 Y106.617 E0.01502
G1 X133.112 Y106.909 E0.01161
G1 X132.897 Y107.313 E0.01473
G1 X132.732 Y107.856 E0.01824
G1 X132.682 Y108.266 E0.01327
G1 X132.682 Y108.546 E0.00900
G1 X132.751 Y109.039 E0.01603
G1 X132.935 Y109.598 E0.01891
G1 X132.924 Y109.699 E0.00328
G1 X132.458 Y110.417 E0.02752
G1 X131.933 Y111.069 E0.02691
G1 X132.045 Y111.479 F7200.000
G1 F1200
G1 X131.871 Y111.533 E0.00586
G1 X131.272 Y111.531 E0.01927
G1 X130.840 Y111.607 E0.01411
G1 X130.439 Y111.757 E0.01376
G1 X130.241 Y111.863 E0.00720
G1 X129.904 Y112.108 E0.01341
G1 X129.635 Y112.387 E0.01247
G1 X129.457 Y112.632 E0.00973
G1 X129.272 Y112.985 E0.01282
G1 X129.124 Y113.473 E0.01638
G1 X129.078 Y113.578 E0.00370
G1 X128.987 Y113.703 E0.00496
G1 X128.870 Y113.802 E0.00493
G1 X128.771 Y113.855 E0.00362
G1 X127.971 Y114.155 E0.02748
G1 X127.161 Y114.379 E0.02702
G1 X126.965 Y114.394 E0.00633
G1 X126.775 Y114.350 E0.00626
G1 X126.682 Y114.304 E0.00333
G1 X126.381 Y114.068 E0.01230
G1 X126.041 Y113.865 E0.01273
G1 X125.634 Y113.710 E0.01402
G1 X125.209 Y113.633 E0.01387
G1 X124.716 Y113.643 E0.01586
G1 X124.370 Y113.710 E0.01133
G1 X124.155 Y113.780 E0.00729
G1 X123.765 Y113.970 E0.01395
G1 X123.285 Y114.322 E0.01912
G1 X123.147 Y114.376 E0.00477
G1 X122.998 Y114.396 E0.00484
G1 X122.843 Y114.379 E0.00503
G1 X122.029 Y114.155 E0.02713
G1 X121.232 Y113.856 E0.02737
G1 X121.097 Y113.778 E0.00503
G1 X120.988 Y113.674 E0.00484
G1 X120.908 Y113.550 E0.00476
G1 X120.742 Y113.021 E0.01782
G1 X120.544 Y112.633 E0.01401
G1 X120.365 Y112.387 E0.00977
G1 X120.094 Y112.107 E0.01254
G1 X119.690 Y111.825 E0.01583
G1 X119.371 Y111.676 E0.01133
G1 X119.155 Y111.607 E0.00729
G1 X118.728 Y111.531 E0.01395
G1 X118.130 Y111.533 E0.01923
G1 X117.921 Y111.465 E0.00708
G1 X117.827 Y111.403 E0.00361
G1 X117.744 Y111.323 E0.00373
G1 X117.213 Y110.656 E0.02740
G1 X116.744 Y109.947 E0.02732
G1 X116.694 Y109.843 E0.00373
G1 X116.664 Y109.735 E0.00361
G1 X116.663 Y109.515 E0.00708
G1 X116.851 Y108.947 E0.01923
G1 X116.911 Y108.512 E0.01412
G1 X116.893 Y108.084 E0.01376
G1 X116.853 Y107.864 E0.00720
G1 X116.724 Y107.467 E0.01343
G1 X116.520 Y107.089 E0.01380
G1 X116.248 Y106.749 E0.01402
G1 X115.949 Y106.489 E0.01273
G1 X115.631 Y106.275 E0.01234
G1 X115.556 Y106.199 E0.00342
G1 X115.474 Y106.070 E0.00492
G1 X115.427 Y105.932 E0.00467
G1 X115.375 Y104.999 E0.03007
G1 X115.410 Y104.192 E0.02597
G1 X115.434 Y104.035 E0.00509
G1 X115.491 Y103.897 E0.00481
G1 X115.579 Y103.776 E0.00482
G1 X116.085 Y103.405 E0.02017
G1 X116.364 Y103.120 E0.01282
G1 X116.542 Y102.875 E0.00973
G1 X116.725 Y102.531 E0.01254
G1 X116.868 Y102.059 E0.01583
G1 X116.911 Y101.710 E0.01133
G1 X116.911 Y101.483 E0.00729
G1 X116.851 Y101.053 E0.01395
G1 X116.663 Y100.484 E0.01927
G1 X116.671 Y100.236 E0.00799
G1 X116.769 Y100.015 E0.00775
G1 X117.533 Y98.942 E0.04237
G1 X117.803 Y98.618 E0.01358
G1 X117.984 Y98.506 E0.00681
G1 X118.179 Y98.462 E0.00645
G1 X118.686 Y98.472 E0.01631
G1 X119.121 Y98.403 E0.01417
G1 X119.565 Y98.241 E0.01518
G1 X119.931 Y98.023 E0.01370
G1 X120.251 Y97.743 E0.01366
G1 X120.520 Y97.404 E0.01393
G1 X120.728 Y97.015 E0.01417
G1 X120.922 Y96.422 E0.02009
G1 X121.011 Y96.300 E0.00485
G1 X121.159 Y96.182 E0.00610
G1 X122.031 Y95.845 E0.03004
G1 X122.842 Y95.621 E0.02707
G1 X123.007 Y95.604 E0.00534
G1 X123.147 Y95.624 E0.00454
G1 X123.284 Y95.678 E0.00475
G1 X123.758 Y96.026 E0.01890
G1 X124.148 Y96.217 E0.01397
G1 X124.561 Y96.334 E0.01383
G1 X124.787 Y96.366 E0.00734
G1 X125.213 Y96.366 E0.01367
G1 X125.439 Y96.334 E0.00734
G1 X125.852 Y96.217 E0.01383
G1 X126.242 Y96.026 E0.01397
G1 X126.716 Y95.677 E0.01891
G1 X126.834 Y95.629 E0.00408
G1 X126.960 Y95.606 E0.00412
G1 X127.156 Y95.621 E0.00632
G1 X128.770 Y96.146 E0.05460
G1 X128.917 Y96.233 E0.00548
G1 X129.034 Y96.355 E0.00543
G1 X129.126 Y96.534 E0.00647
G1 X129.272 Y97.015 E0.01616
G1 X129.459 Y97.371 E0.01295
G1 X129.748 Y97.743 E0.01515
G1 X130.069 Y98.023 E0.01370
G1 X130.434 Y98.241 E0.01366
G1 X130.840 Y98.393 E0.01393
G1 X131.272 Y98.469 E0.01412
G1 X131.866 Y98.467 E0.01912
G1 X132.010 Y98.504 E0.00477
G1 X132.142 Y98.575 E0.00484
G1 X132.258 Y98.680 E0.00503
G1 X132.787 Y99.343 E0.02725
G1 X133.254 Y100.050 E0.02725
G1 X133.318 Y100.192 E0.00503
G1 X133.344 Y100.340 E0.00484
G1 X133.336 Y100.489 E0.00477
G1 X133.149 Y101.053 E0.01912
G1 X133.089 Y101.488 E0.01412
G1 X133.107 Y101.916 E0.01376
G1 X133.147 Y102.136 E0.00720
G1 X133.276 Y102.533 E0.01343
G1 X133.480 Y102.911 E0.01380
G1 X133.752 Y103.251 E0.01402
G1 X134.051 Y103.511 E0.01273
G1 X134.368 Y103.725 E0.01230
G1 X134.443 Y103.801 E0.00344
G1 X134.526 Y103.931 E0.00496
G1 X134.574 Y104.070 E0.00472
G1 X134.602 Y104.488 E0.01347
G1 X134.602 Y105.515 E0.03302
G1 X134.587 Y105.850 E0.01080
G1 X134.567 Y105.961 E0.00362
G1 X134.509 Y106.103 E0.00493
G1 X134.418 Y106.227 E0.00496
G1 X134.333 Y106.304 E0.00370
G1 X133.915 Y106.595 E0.01638
G1 X133.636 Y106.880 E0.01282
G1 X133.458 Y107.125 E0.00973
G1 X133.275 Y107.469 E0.01254
G1 X133.132 Y107.941 E0.01583
G1 X133.089 Y108.290 E0.01133
G1 X133.089 Y108.517 E0.00729
G1 X133.149 Y108.947 E0.01395
G1 X133.337 Y109.515 E0.01923
G1 X133.336 Y109.735 E0.00708
G1 X133.306 Y109.843 E0.00361
G1 X133.256 Y109.947 E0.00373
G1 X132.787 Y110.656 E0.02732
G1 X132.256 Y111.323 E0.02740
G1 X132.098 Y111.452 E0.00657
G1 X131.891 Y111.381 F7200.000
G1 F5760
G1 X131.871 Y111.533 E-0.07168
G1 X131.272 Y111.531 E-0.17787
G1 X130.840 Y111.607 E-0.13031
G1 X130.439 Y111.757 E-0.12708
